X:1
T:Bourr?e Croiss?e du Morvan
R:Bourree
B:Massif Central Tune Book no 1 number 31
M:3/8
L:1/8
K:C
Gcd|ed/e/f|cde|d3|Gcd|ed/e/f|dcB|c3:|
gf/g/a/g/|fd/e/f/e/|cde|d3|gf/g/a/g/|fd/e/f/e/|dcB|c3:|
<end>
<start>
